X: 37090
T: Silver Tree, The
R: reel
M: 4/4
K: Adorian
|:A2EA cAEA|G2DG BGDG|AcEA cAGB|1 dBGA BAAG:|2 dBGA BAA2||
ea~a2 b2ab|gede gabg|ea~a2 bgab|gedB cAA2|
ea~a2 ba~a2|gede gabg|ea~a2 c'aba|gedB cABG||

